gfx/socialEmail.svg

<svg fill="none" height="24" viewBox="0 0 24 24" width="24" xmlns="http://www.w3.org/2000/svg"><path d="m19.7588 3.71997c2.0366 0 3.1356 1.01962 3.2089 2.97096l.004.21263v10.74104c0 2.0152-1.017 3.1042-2.7796 3.1794l-.1989.0042h-15.75199c-2.03664 0-3.13559-1.0196-3.20896-2.971l-.00393-.2126v-10.74104c0-2.02462 1.01702-3.10487 2.77962-3.17944l.1989-.00415zm-5.0879 9.66683-.5371.5273c-.7031.6934-1.3965.9863-2.1192.9863-.6713 0-1.3017-.2461-1.9512-.8212l-.17766-.1651-.52734-.5273-5.5957 5.5468c.09765.0196.20399.0348.31611.0427l.17217.0062h15.49802c.1237 0 .2387-.0087.348-.0261l.1598-.0325zm-11.81641-6.34652v10.42852l5.3125-5.2539zm18.29101.0293-5.2832 5.14532 5.2832 5.2344zm-1.3965-1.51367h-15.49802c-.11068 0-.21702.00868-.31612.02315l-.14287.02568 7.10941 6.98126c.4101.3906.7519.5762 1.1132.5762.3212 0 .627-.1389.979-.451l.1343-.1252 7.0996-6.9715c-.0976-.02604-.1996-.0434-.3088-.05208z" fill="#000"/></svg>

<svg width="24" height="24" viewBox="0 0 24 24" fill="none" xmlns="http://www.w3.org/2000/svg">
<path d="M19.7588 3.71997C21.7954 3.71997 22.8944 4.73959 22.9677 6.69093L22.9717 6.90356V17.6446C22.9717 19.6598 21.9547 20.7488 20.1921 20.824L19.9932 20.8282H4.24121C2.20457 20.8282 1.10562 19.8086 1.03225 17.8572L1.02832 17.6446V6.90356C1.02832 4.87894 2.04534 3.79869 3.80794 3.72412L4.00684 3.71997H19.7588ZM14.6709 13.3868L14.1338 13.9141C13.4307 14.6075 12.7373 14.9004 12.0146 14.9004C11.3433 14.9004 10.7129 14.6543 10.0634 14.0792L9.88574 13.9141L9.3584 13.3868L3.7627 18.9336C3.86035 18.9532 3.96669 18.9684 4.07881 18.9763L4.25098 18.9825H19.749C19.8727 18.9825 19.9877 18.9738 20.097 18.9564L20.2568 18.9239L14.6709 13.3868ZM2.85449 7.04028V17.4688L8.16699 12.2149L2.85449 7.04028ZM21.1455 7.06958L15.8623 12.2149L21.1455 17.4493V7.06958ZM19.749 5.55591H4.25098C4.1403 5.55591 4.03396 5.56459 3.93486 5.57906L3.79199 5.60474L10.9014 12.586C11.3115 12.9766 11.6533 13.1622 12.0146 13.1622C12.3358 13.1622 12.6416 13.0233 12.9936 12.7112L13.1279 12.586L20.2275 5.6145C20.1299 5.58846 20.0279 5.5711 19.9187 5.56242L19.749 5.55591Z" fill="black" style="fill:black;fill-opacity:1;"/>
</svg>
